X: 40293
T: Tolka, The
R: polka
M: 2/4
K: Adorian
|:A>B cg|de cA|B/c/B/A/ Gd|AB GE|
A>B cg|de cA|B/c/B/A/ Gd|1 BA e/d/c/e/:|2 BA A2||
|:d>e fa|ga fd|g/e/d/c/ Bd/c/|B/A/G B/A/G/B/|
A>B cg|de cA|B/c/B/A/ Gd|BA A2:|
|:e>f gf|d (e e)/f/g|fd f/g/f/e/|dc Bd-|d/c/B cg|
de cA|B/c/B/A/ Gd|1 BA A2:|2 BA e/d/c/e/||

